icons/stomach.svg

<svg width="48" height="48" viewBox="0 0 48 48" fill="none" xmlns="http://www.w3.org/2000/svg">
<path fill-rule="evenodd" clip-rule="evenodd" d="M16.7155 15.1219C17.8954 16.4081 19.8888 16.9598 23.542 17.038C23.7503 14.279 24.813 12.1056 26.3857 10.58C28.1339 8.88435 30.4523 8.04785 32.7523 8.04785C35.0522 8.04785 37.3706 8.88435 39.1188 10.58C40.8788 12.2871 42 14.8055 42 18.0479V29.0479C42 32.1301 41.4867 35.3491 39.9335 37.8287C38.3351 40.3804 35.6951 42.0479 31.7432 42.0479C27.7022 42.0479 24.8885 39.6497 22.3158 37.43L22.2038 37.3334C19.6131 35.0975 17.1992 33.0143 13.7669 32.5481C12.0838 32.5608 10.9508 33.0751 10.1598 33.7792C9.33943 34.5094 8.81037 35.513 8.4801 36.5908C8.15047 37.6666 8.03643 38.7601 8.00791 39.5975C7.99376 40.0131 8.0009 40.3579 8.01132 40.5959C8.01652 40.7148 8.02252 40.8065 8.02701 40.8665C8.02926 40.8965 8.03113 40.9185 8.03233 40.932L8.03359 40.9458L8.0337 40.9469C8.03367 40.9466 8.03363 40.9462 7.03881 41.0479C6.04398 41.1495 6.04394 41.149 6.04389 41.1486L6.04378 41.1474L6.04349 41.1446L6.04268 41.1362L6.0402 41.1092C6.0382 41.0868 6.03557 41.0554 6.0326 41.0159C6.02667 40.9367 6.0194 40.8243 6.01323 40.6834C6.00091 40.4019 5.9929 40.0045 6.00907 39.5294C6.04121 38.5856 6.16975 37.3041 6.56786 36.0049C6.96534 34.7077 7.64918 33.3363 8.8301 32.2852C10.0303 31.217 11.6683 30.5479 13.831 30.5479C14.334 30.5479 14.8079 30.5593 15.2632 30.5702C16.1092 30.5906 16.891 30.6094 17.6755 30.5506C18.8301 30.4641 19.7824 30.2125 20.5693 29.6227C22.0755 28.4938 23.3811 25.7985 23.4963 19.038C19.7773 18.9609 17.0159 18.408 15.2417 16.4738C14.2781 15.4234 13.6832 14.0487 13.3244 12.348C12.9669 10.6536 12.831 8.57284 12.831 6.04785H14.831C14.831 8.52286 14.9663 10.4421 15.2813 11.9352C15.595 13.422 16.0738 14.4223 16.7155 15.1219ZM23.3706 35.6983C22.0623 34.5677 20.6631 33.3585 19.0444 32.3864C19.9883 32.2029 20.9197 31.8595 21.7688 31.223C23.0692 30.2484 24.0492 28.6895 24.6785 26.2953C26.3251 25.1843 27.6787 24.9497 28.8673 25.0805C30.1386 25.2203 31.3143 25.7828 32.6104 26.4398L32.8261 26.5494C34.0031 27.1482 35.331 27.8237 36.7422 28.0014C37.814 28.1364 38.895 27.986 40 27.4322V29.0479C40 31.9656 39.5042 34.7466 38.2386 36.767C37.0182 38.7153 35.0298 40.0479 31.7432 40.0479C28.5456 40.0479 26.2651 38.196 23.6223 35.9157L23.3706 35.6983ZM40 25.0744V18.0479C40 15.2902 39.0593 13.3086 37.7263 12.0157C36.3817 10.7114 34.5762 10.0479 32.7523 10.0479C30.9284 10.0479 29.1229 10.7114 27.7782 12.0157C26.4453 13.3086 25.5046 15.2902 25.5046 18.0479C25.5046 20.2422 25.3926 22.124 25.1736 23.7339C26.5562 23.1196 27.8524 22.9568 29.0859 23.0924C30.7677 23.2774 32.2483 24.0139 33.5147 24.6559L33.605 24.7017C34.896 25.3564 35.9368 25.8842 36.9922 26.0171C37.8825 26.1293 38.8462 25.9614 40 25.0744Z" fill="black"/>
</svg>

<svg
  xmlns="http://www.w3.org/2000/svg"
  width="24"
  height="24"
  viewBox="0 0 24 24"
  fill="none"
  stroke="currentColor"
  stroke-width="2"
  stroke-linecap="round"
  stroke-linejoin="round"
>
  <path
    fill-rule="evenodd"
    d="M16.716 15.122c1.18 1.286 3.173 1.838 6.826 1.916.208-2.759 1.271-4.932 2.844-6.458 1.748-1.696 4.066-2.532 6.366-2.532s4.619.836 6.367 2.532C40.879 12.287 42 14.806 42 18.048v11c0 3.082-.513 6.301-2.066 8.78-1.599 2.552-4.239 4.22-8.19 4.22-4.042 0-6.855-2.398-9.428-4.618l-.112-.097c-2.59-2.236-5.005-4.319-8.437-4.785-1.683.013-2.816.527-3.607 1.231-.82.73-1.35 1.734-1.68 2.812-.33 1.076-.444 2.17-.472 3.006a13 13 0 0 0 .019 1.27l.005.065.002.014-.995.102c-.995.102-.995.101-.995.1v-.003l-.001-.009-.003-.027-.007-.093a14.974 14.974 0 0 1-.024-1.486c.032-.944.16-2.226.559-3.525.397-1.297 1.081-2.669 2.262-3.72 1.2-1.068 2.838-1.737 5.001-1.737.503 0 .977.011 1.432.022.846.02 1.628.04 2.412-.02 1.155-.086 2.107-.338 2.894-.927 1.507-1.13 2.812-3.825 2.927-10.585-3.719-.077-6.48-.63-8.254-2.564-.964-1.05-1.559-2.425-1.918-4.126-.357-1.694-.493-3.775-.493-6.3h2c0 2.475.135 4.394.45 5.887.314 1.487.793 2.487 1.434 3.187m6.655 20.576c-1.309-1.13-2.708-2.34-4.327-3.312.944-.183 1.876-.527 2.725-1.163 1.3-.975 2.28-2.533 2.91-4.928 1.646-1.11 3-1.345 4.188-1.215 1.272.14 2.447.703 3.743 1.36l.216.11c1.177.598 2.505 1.274 3.916 1.451A5.54 5.54 0 0 0 40 27.432v1.616c0 2.918-.496 5.699-1.761 7.719-1.22 1.948-3.21 3.28-6.496 3.28-3.197 0-5.478-1.851-8.12-4.131zM40 25.074v-7.026c0-2.758-.94-4.74-2.274-6.032-1.344-1.305-3.15-1.968-4.974-1.968s-3.63.663-4.974 1.968c-1.333 1.293-2.273 3.274-2.273 6.032 0 2.194-.112 4.076-.331 5.686 1.382-.614 2.678-.777 3.912-.642 1.682.185 3.162.922 4.429 1.564l.09.046c1.291.654 2.332 1.182 3.387 1.315.89.112 1.854-.056 3.008-.943"
    clip-rule="evenodd"
  />
</svg>
